lib/flags/m/686.svg

<svg xmlns="http://www.w3.org/2000/svg" fill="none" viewBox="0 0 20 15"><mask id="686_svg__a" width="20" height="15" x="0" y="0" mask-type="alpha" maskUnits="userSpaceOnUse"><path fill="#fff" d="M0 0H20V15H0z"/></mask><g fill-rule="evenodd" clip-rule="evenodd" mask="url(#686_svg__a)"><path fill="#FBCD17" d="M6.25 0H13.75V15H6.25V0Z"/><path fill="#006923" d="M10.0471 9.05642L7.8686 10.5675L8.56471 7.97939L6.96545 6.32612L9.13094 6.23673L10.0471 3.67749L10.9633 6.23673H13.1251L11.5295 7.97939L12.3286 10.4147L10.0471 9.05642Z"/><path fill="#E11C1B" d="M13.75 0H20V15H13.75V0Z"/><path fill="#006923" d="M0 0H6.25V15H0V0Z"/></g></svg>

<svg xmlns="http://www.w3.org/2000/svg" fill="none" viewBox="0 0 20 15"><mask id="686_svg__a" width="20" height="15" x="0" y="0" maskUnits="userSpaceOnUse"><path fill="#fff" d="M0 0h20v15H0z"/></mask><g fill-rule="evenodd" clip-rule="evenodd" mask="url(#686_svg__a)"><path fill="#FBCD17" d="M6.25 0h7.5v15h-7.5V0z"/><path fill="#006923" d="M10.047 9.056L7.87 10.568l.696-2.589-1.6-1.653 2.166-.09.916-2.558.916 2.559h2.162L11.53 7.979l.799 2.436-2.282-1.359z"/><path fill="#E11C1B" d="M13.75 0H20v15h-6.25V0z"/><path fill="#006923" d="M0 0h6.25v15H0V0z"/></g></svg>
